src/pos-icons/briefcase-edit-outline.svg

<svg height="24" viewBox="0 0 24 24" width="24" xmlns="http://www.w3.org/2000/svg"><path d="m21.04 12.13c.14 0 .27.06.38.17l1.28 1.28c.22.21.22.56 0 .77l-1 1-2.05-2.05 1-1c.11-.11.25-.17.39-.17m-1.97 1.75 2.05 2.05-6.06 6.07h-2.06v-2.06zm-9.07-11.88h4a2 2 0 0 1 2 2v2h4a2 2 0 0 1 2 2l-2 2v-2h-16v11h7v2h-7a2 2 0 0 1 -2-2v-11a2 2 0 0 1 2-2h4v-2a2 2 0 0 1 2-2m4 4v-2h-4v2z"/></svg>

<?xml version="1.0" encoding="UTF-8"?><!DOCTYPE svg PUBLIC "-//W3C//DTD SVG 1.1//EN" "http://www.w3.org/Graphics/SVG/1.1/DTD/svg11.dtd"><svg xmlns="http://www.w3.org/2000/svg" xmlns:xlink="http://www.w3.org/1999/xlink" version="1.1" id="mdi-briefcase-edit-outline" width="24" height="24" viewBox="0 0 24 24"><path d="M21.04,12.13C21.18,12.13 21.31,12.19 21.42,12.3L22.7,13.58C22.92,13.79 22.92,14.14 22.7,14.35L21.7,15.35L19.65,13.3L20.65,12.3C20.76,12.19 20.9,12.13 21.04,12.13M19.07,13.88L21.12,15.93L15.06,22H13V19.94L19.07,13.88M10,2H14A2,2 0 0,1 16,4V6H20A2,2 0 0,1 22,8L20,10V8H4V19H11V21H4A2,2 0 0,1 2,19V8A2,2 0 0,1 4,6H8V4A2,2 0 0,1 10,2M14,6V4H10V6H14Z" /></svg>
